!!!!SEGMENT: pl-kk--kk-i-59--003_anonim--missa-a-3-sanctus.krn
!!!cenid: 17xx:2247
!!!COM: Anonim
!!!COM-rismid: pe30004985
!!!CDT:
!!!CNT:
!!!OTL: Missa a 3 – Sanctus
!!!PDT:
!!!AGN: Sacred; Mass
!!!SMS-siglum: PL-Kk
!!!SMS-shelfmark: Kk.I.59
!!!SMS-shelfwork: 001-003 M
!!!SMS-variant:
!!!SMS-altvar:
!!!NIFC-rismid: 1001156799
!!!URL-scan: http://repozytorium.nifc.pl/skany/pl-kk-nut--i-59
!!!ONB-nifc: UWAGA: części Mszy: 1. Kyrie, 2. Et in terra, 3. Sanctus, 4. Benedictus, 5. Agnus Dei.
**kern	**text	**kern	**text	**kern	**text
*part3	*part3	*part2	*part2	*part1	*part1
*staff3	*staff3	*staff2	*staff2	*staff1	*staff1
*I"Baſso	*	*I"Tenore Secondo	*	*I"Tenore Primo	*
*I'B	*	*I'T 2	*	*I'T 1	*
*clefF4	*	*clefC4	*	*clefC4	*
*ok[e-b-]	*	*	*	*ok[b-f-]	*
*k[b-e-]	*	*k[b-e-]	*	*k[b-e-]	*
*g:	*	*g:	*	*g:	*
*M2/1	*	*M2/1	*	*M2/1	*
*met(C|)	*	*met(C|)	*	*met(C|)	*
=1-	=1-	=1-	=1-	=1-	=1-
2.GG/	San-	2r	.	2r	.
!	!	!LO:TX:t=P:problem:przekreślona synkopowana wartość	!	!LO:TX:t=P:problem:przekreślona synkopowana wartość	!
.	.	1B-	San-	1d	San-
!LO:TX:t=P:problem:kreska pseudotaktowa	!	!	!	!	!
4AA/	.	.	.	.	.
2BB-/	.	.	.	.	.
!LO:TX:t=P:problem:kreska pseudotaktowa	!	!	!	!	!
2C/	.	4A/	.	4c\	.
!	!	!LO:TX:t=P:problem:kreska pseudotaktowa	!	!LO:TX:t=P:problem:kreska pseudotaktowa	!
.	.	4G/	.	4B-\	.
=2-	=2-	=2-	=2-	=2-	=2-
*	*	*	*	*2\right	*
!LO:TX:t=P:problem:kreska pseudotaktowa	!	!	!	!	!
0D	.	2F/	.	2A\	.
!	!	!LO:TX:t=P:problem:przekreślona synkopowana wartość	!	!LO:TX:t=P:problem:kreska pseudotaktowa	!
.	.	1G	.	2B-\	.
!	!	!	!	!LO:TX:t=P:problem:kreska pseudotaktowa	!
.	.	.	.	1A	.
!	!	!LO:TX:t=P:problem:kreska pseudotaktowa	!	!	!
.	.	2F#X/	.	.	.
=3-	=3-	=3-	=3-	=3-	=3-
!LO:TX:t=P:problem:kreska pseudotaktowa	!	!LO:TX:t=P:problem:kreska pseudotaktowa	!	!LO:TX:t=P:problem:kreska pseudotaktowa	!
1GG	-ctus	1G	-ctus	1Bn	-ctus
2.FF/	San-	2r	.	2r	.
*	*	*	*	*	*ij
!	!	!LO:TX:t=P:problem:przekreślona synkopowana wartość	!	!LO:TX:t=P:problem:przekreślona synkopowana wartość	!
.	.	1A\	San-	1c\	San-
!LO:TX:t=P:problem:kreska pseudotaktowa	!	!	!	!	!
4GG/	.	.	.	.	.
=4-	=4-	=4-	=4-	=4-	=4-
2AA/	.	.	.	.	.
!LO:TX:t=P:problem:kreska pseudotaktowa	!	!	!	!	!
2BB-/	.	4G/	.	4B-y\	.
!	!	!LO:TX:t=P:problem:kreska pseudotaktowa	!	!LO:TX:t=P:problem:kreska pseudotaktowa	!
.	.	4Fny/	.	4A\	.
0C	.	2En/	.	2G/	.
!	!	!LO:TX:t=P:problem:przekreślona synkopowana wartość	!	!LO:TX:t=P:problem:kreska pseudotaktowa	!
.	.	1F/	.	2A/	.
=5-	=5-	=5-	=5-	=5-	=5-
!LO:TX:t=P:problem:kreska pseudotaktowa	!	!	!	!LO:TX:t=P:problem:kreska pseudotaktowa	!
.	.	.	.	1G	.
!	!	!LO:TX:t=P:problem:kreska pseudotaktowa	!	!	!
.	.	2Eny/	.	.	.
!LO:TX:t=P:problem:kreska pseudotaktowa	!	!LO:TX:t=P:problem:kreska pseudotaktowa	!	!LO:TX:t=P:problem:kreska pseudotaktowa	!
1F	-ctus	1F	-ctus	1A	-ctus
=6-	=6-	=6-	=6-	=6-	=6-
2.BB-/	San-	2r	.	2r	.
!	!	!LO:TX:t=P:problem:przekreślona synkopowana wartość	!	!LO:TX:t=P:problem:przekreślona synkopowana wartość	!
.	.	1d	San-	1B-	San-
!LO:TX:t=P:problem:kreska pseudotaktowa	!	!	!	!	!
4C/	.	.	.	.	.
*2\right	*	*	*	*	*
2D\	.	.	.	.	.
!LO:TX:t=P:problem:kreska pseudotaktowa	!	!	!	!	!
2En\	.	4c\	.	4A/	.
!	!	!LO:TX:t=P:problem:kreska pseudotaktowa	!	!LO:TX:t=P:problem:kreska pseudotaktowa	!
.	.	4B-\	.	4G/	.
=7-	=7-	=7-	=7-	=7-	=7-
*	*	*2\right	*	*	*
!LO:TX:t=P:problem:kreska pseudotaktowa	!	!LO:LB:g=original	!	!LO:LB:g=original	!
!LO:LB:g=original	!	!	!	!	!
0F	.	2A\	.	2c\	.
!	!	!LO:TX:t=P:problem:przekreślona synkopowana wartość	!	!LO:TX:t=P:problem:kreska pseudotaktowa	!
.	.	1B-	.	2d\	.
!	!	!	!	!LO:TX:t=P:problem:kreska pseudotaktowa	!
.	.	.	.	1c	.
!	!	!LO:TX:t=P:problem:kreska pseudotaktowa	!	!	!
.	.	2A\	.	.	.
=8-	=8-	=8-	=8-	=8-	=8-
2BB-/	-ctus	2B-\	-ctus	2d\	-ctus
*	*	*	*	*	*Xij
!LO:TX:t=P:problem:kreska pseudotaktowa:między nutą a kropką	!	!LO:TX:t=P:problem:kreska pseudotaktowa:między nutą a kropką	!	!LO:TX:t=P:problem:kreska pseudotaktowa:między nutą a kropką	!
2.BB-/	Do-	2.d\	Do-	2.B-\	Do-
4BB-/	-mi-	4d\	-mi-	4B-\	-mi-
!LO:TX:t=P:problem:kreska pseudotaktowa	!	!LO:TX:t=P:problem:przekreślona synkopowana wartość	!	!LO:TX:t=P:problem:kreska pseudotaktowa	!
2F\	-nus	1c\	-nus	2A\	-nus
=9-	=9-	=9-	=9-	=9-	=9-
!LO:TX:t=P:problem:kreska pseudotaktowa	!	!	!	!LO:TX:t=P:problem:kreska pseudotaktowa	!
1E-X	De-	.	.	1G	De-
!	!	!LO:TX:t=P:problem:kreska pseudotaktowa:między nutą a kropką	!	!	!
.	.	2.B-\	De-	.	.
!LO:TX:t=P:problem:kreska pseudotaktowa	!	!	!	!	!
1D	-us	.	.	2F/	-us
.	.	8A/L	.	.	.
.	.	8G/J	.	.	.
!	!	!	!	!LO:TX:t=P:problem:przekreślona synkopowana wartość	!
.	.	4F/	.	1F/	Sab-
!	!	!LO:TX:t=P:problem:kreska pseudotaktowa	!	!	!
.	.	4G/	.	.	.
=10-	=10-	=10-	=10-	=10-	=10-
2.C/	Sab-	2A/	.	.	.
!	!	!LO:TX:t=P:problem:kreska pseudotaktowa	!	!	!
.	.	2G/	-us	4En/	.
!LO:TX:t=P:problem:kreska pseudotaktowa	!	!	!	!LO:TX:t=P:problem:kreska pseudotaktowa	!
4BB-/	.	.	.	4D/	.
2.AA/	.	2.c\	Sab-	2En/	.
!	!	!	!	!LO:TX:t=P:problem:kreska pseudotaktowa	!
.	.	.	.	2F#X/	-ba-
!LO:TX:t=P:problem:kreska pseudotaktowa	!	!LO:TX:t=P:problem:kreska pseudotaktowa	!	!	!
4AA/	-ba-	4c\	-ba-	.	.
=11-	=11-	=11-	=11-	=11-	=11-
!	!	!LO:TX:t=P:problem:kreska pseudotaktowa	!	!	!
2GG/	-oth	1Bn	-oth	2G/	-oth
!LO:TX:t=P:problem:kreska pseudotaktowa	!	!	!	!	!
2G\	Ple-	.	.	4r	.
!	!	!	!	!LO:TX:t=P:problem:kreska pseudotaktowa	!
.	.	.	.	4d\	Ple-
4A\	-ni	2r	.	4c\	-ni
4G\	sunt	.	.	4B-\	sunt
!LO:TX:t=P:problem:kreska pseudotaktowa	!	!	!	!LO:TX:t=P:problem:kreska pseudotaktowa	!
2F\	Cae-	4r	.	2A\	Cae-
!	!	!LO:TX:t=P:problem:kreska pseudotaktowa	!	!	!
.	.	4d\	Ple-	.	.
=12-	=12-	=12-	=12-	=12-	=12-
!	!	!	!	!LO:LB:g=original	!
2En\	-li	4c\	-ni	2G/	-li
.	.	4B-y\	sunt	.	.
!LO:TX:t=P:problem:kreska pseudotaktowa	!	!LO:TX:t=P:problem:kreska pseudotaktowa	!	!LO:TX:t=P:problem:kreska pseudotaktowa	!
2F#X\	et	2A\	Cae-	2A/	et
!LO:LB:g=original	!	!LO:LB:g=original	!	!	!
2G\	ter-	4G/	-li	2B-\	ter-
.	.	4G/	et	.	.
!LO:TX:t=P:problem:kreska pseudotaktowa	!	!LO:TX:t=P:problem:kreska pseudotaktowa	!	!LO:TX:t=P:problem:kreska pseudotaktowa	!
2D\	-ra	2F#X/	ter-	2A\	-ra
=13-	=13-	=13-	=13-	=13-	=13-
2r	.	2G/	-ra	4r	.
.	.	.	.	2G/	glo-
!LO:TX:t=P:problem:kreska pseudotaktowa:między nutą a kropką	!	!LO:TX:t=P:problem:kreska pseudotaktowa:między nutą a kropką	!	!	!
2.D\	glo-	2.A\	glo-	.	.
!	!	!	!	!LO:TX:t=P:problem:kreska pseudotaktowa	!
.	.	.	.	4F#X/	-ri-
.	.	.	.	2F#X/	-a
4D\	-ri-	4A\	-ri-	.	.
!	!	!LO:TX:t=P:problem:przekreślona synkopowana wartość	!	!LO:TX:t=P:problem:kreska pseudotaktowa:między nutą a kropką	!
2GG/	-a	1B-\	-a	2.G/	tu-
=14-	=14-	=14-	=14-	=14-	=14-
!LO:TX:t=P:problem:kreska pseudotaktowa	!	!	!	!	!
1E-X	tu-	.	.	.	.
.	.	.	.	4A\	.
!	!	!LO:TX:t=P:problem:przekreślona synkopowana wartość	!	!	!
.	.	1G	tu-	4B-\	.
.	.	.	.	8A/L	.
!	!	!	!	!LO:TX:t=P:problem:kreska pseudotaktowa	!
.	.	.	.	8G/J	.
!LO:TX:t=P:problem:kreska pseudotaktowa	!	!	!	!LO:TX:t=P:problem:kreska pseudotaktowa	!
1D	-a	.	.	1A	.
!	!	!LO:TX:t=P:problem:kreska pseudotaktowa	!	!	!
.	.	2F#X/	.	.	.
=15-	=15-	=15-	=15-	=15-	=15-
!LO:TX:t=P:problem:brak 1r	!	!LO:TX:t=P:problem:podwójna kreska taktowa	!	!LO:TX:t=P:problem:kreska pseudotaktowa	!
1ryy	.	1F#X	-a	1A;	-a
2r	.	2G\	O-	2G/	O-
!LO:TX:t=P:problem:kreska pseudotaktowa	!	!LO:TX:t=P:problem:przekreślona synkopowana wartość	!	!LO:TX:t=P:problem:przekreślona synkopowana wartość	!
2G\	O-	1B-\	-san-	1d\	-san-
=16-	=16-	=16||	=16||	=16-	=16-
!LO:TX:t=P:problem:kreska pseudotaktowa	!	!	!	!	!
1Fny	-san-	.	.	.	.
!	!	!LO:TX:t=P:problem:przekreślona synkopowana wartość	!	!LO:TX:t=P:problem:przekreślona synkopowana wartość	!
.	.	1A	-na	1c	.
2E-X\	na	.	.	.	.
!	!	!LO:TX:t=P:problem:kreska pseudotaktowa	!	!LO:TX:t=P:problem:kreska pseudotaktowa	!
1E-\	in	2G/	in	2B-\	-na
=17-	=17-	=17-	=17-	=17-	=17-
.	.	2G/	ex-	2e-\	in
!LO:TX:t=P:problem:kreska pseudotaktowa	!	!LO:TX:t=P:problem:kreska pseudotaktowa	!	!LO:TX:t=P:problem:przekreślona synkopowana wartość	!
2BB-/	ex-	2F/	-cel-	1d	ex-
2.C/	-cel-	4E-/	.	.	.
.	.	4F/	.	.	.
!	!	!	!	!LO:TX:t=P:problem:przekreślona synkopowana wartość	!
!	!	!	!	!LO:LB:g=original	!
.	.	4G/	.	1c\	.
!	!	!LO:TX:t=P:problem:kreska pseudotaktowa	!	!	!
8BB-/L	.	4E-/	.	.	.
!LO:TX:t=P:problem:kreska pseudotaktowa	!	!	!	!	!
8C/J	.	.	.	.	.
=18-	=18-	=18-	=18-	=18-	=18-
!LO:TX:t=P:problem:kreska pseudotaktowa	!	!	!	!	!
0D	.	2F#X/	.	.	.
!	!	!	!	!LO:TX:t=P:problem:kreska pseudotaktowa	!
.	.	1G	.	2B-\	.
!	!	!	!	!LO:TX:t=P:problem:kreska pseudotaktowa	!
.	.	.	.	1A	-cel-
!	!	!LO:TX:t=P:problem:kreska pseudotaktowa	!	!	!
.	.	2F#/	.	.	.
=19-	=19-	=19-	=19-	=19-	=19-
0GG;>	-sis	0G;>	-sis	0Bn	-sis
=-	=-	=-	=-	=-	=-
*-	*-	*-	*-	*-	*-
!!!system-decoration: [(s1,s2,s3)]
!!!RDF**kern: < = below
!!!RDF**kern: > = above
!!!ENC: Marta Chmielewska
!!!END: 2021-08-03
!!!ENC: Katarzyna Serwa
!!!END: 2021-07-06
